X:27
T:Flüehblüemli-Juiz 2007  Bb  ABCD
T:Fredy Wallimann (30.8.1952)
T:Dirigenten-Notiz  Edi Gasser
C:Unterwalden (CH)
%%partsbox
%P:ABCD
M:4/4
R:Naturjodel
L:1/4
K:Bb
[P:A] F| D>CDE | F2DB/c/ | d>cBG | F3F | E>DEF | c3F/E/ | D>EFd | !fermata!B3F | 
D>CDE | F2DB/c/ | d>cBG | F3F | E>DEF | c>cdc | (B4 | B2)z||
M:4/4
[P:B] B/c/ | d>cBe/d/ | cFEA/B/ | c>BAd/c/ | 
B2dB/c/ | d>cBe/d/ | cFEA/B/ | cFdc | !fermata!B3 || 
M:4/4
[P:C]  F| G>EeG | FdBF | c>cdc | B2dF |  F>EeG | F dBF | c>cdc | B3F 
G>EeG | FdBF | c>cdc | B2dF | G>EeG | FdBF | c>cdc | B3 || 
[P:D] B/c/ | d>cBe/d/ | cFE A/B/ | c>BAd/c/ | B2dB/c/ | 
d>cBe/d/ | cFEA/B/ | cFdc | !fermata!B3B/c/ | d>cBe/d/ | cFEA/B/ | 
c>BAd/c/ | B2dB/c/ | d>cBe/d/ | cFEA/B/ | cfdc | !fermata!B3 |] 
W:
%W:Reihenfolge: A-B-C-D
W:
W:notiert Edi Gasser, nach Angaben von Fredy (Wallimann)
W:UJV-Naturjodelsammlung: Code-Nr: 17-14
W:http://www.naturjodler.ch/code 17-a.htm  (with AUDIO)
%May 14 2018

